X:988
T:Reel 988
M:4/4
K:Emin
L:1/8
EF|GBEF GEBE|FADE FDDF|GFEF GABe| (3dcB AF GEE:|z|edef gfed|BdAc dBAd|Beef gfed|BdAF FEEz|edef gfe^c|dBAG FDAF|EGFA  (3BAB ec|dBAF GEE|
